X:1903
T:Bourrée de Maurienges
C:MCTB 2/33
M:3/8
L:1/16
K:C
GAG|f4e2|d2e2f2|g2gfga|gfgag2|\
f4e2|d2e2f2|g2gfga|1 G3:|2 g6||
|:defgfe|dfe2c2|Bcdedc|Bcd4|\
defgfe|dfe2c2|Bcdedc|1 c6:|2 c3||


